X: 305610
M: 2/4
L: 1/16
K: D
|:\
fdec dBc[cA] | GBAG DD/D/D ::\
abag dfag | gebe gebe |
abaf dfaf | gfaf dd/d/d |\
abaf dfaf | geae geae |\
dfeg fbdc | e>BA>F DD/D/D :|


